dotnetConf2025/Client/wwwroot/img/footer-logo.svg

<?xml version="1.0" encoding="utf-8"?>
<!-- Generator: Adobe Illustrator 25.1.0, SVG Export Plug-In . SVG Version: 6.00 Build 0)  -->
<svg version="1.1" id="Layer_1" xmlns="http://www.w3.org/2000/svg" xmlns:xlink="http://www.w3.org/1999/xlink" x="0px" y="0px"
	 viewBox="0 0 744 293" style="enable-background:new 0 0 744 293;" xml:space="preserve">
<style type="text/css">
	.st0{fill:url(#SVGID_1_);}
	.st1{fill:#FFFFFF;}
</style>
<linearGradient id="SVGID_1_" gradientUnits="userSpaceOnUse" x1="44.8587" y1="5389.2515" x2="760.0419" y2="5679.0049" gradientTransform="matrix(1 0 0 1 0 -5375.2915)">
	<stop  offset="0" style="stop-color:#9999FF"/>
	<stop  offset="0.2824" style="stop-color:#7373D9"/>
	<stop  offset="0.5862" style="stop-color:#5050B6"/>
	<stop  offset="0.8364" style="stop-color:#3B3BA1"/>
	<stop  offset="1" style="stop-color:#333399"/>
</linearGradient>
<rect y="0" class="st0" width="744" height="293"/>
<g>
	<g>
		<path class="st1" d="M73.6,194.7c-8.9,0-15.4,6.8-15.4,16.1s6.4,16.1,15.2,16.1c9.1,0,15.4-6.6,15.4-16.1S82.6,194.7,73.6,194.7z"
			/>
		<path class="st1" d="M199.3,137.5c0,17.1,0.2,32.3,1.3,48.1c-6-11.8-12.9-23.9-21-36.7l-47.3-74.6H108v150.2h22.7v-64.6
			c0-19.7-0.3-34.8-1-49.5c5.8,11.4,13.2,24.1,22.6,39.2l46.8,74.9H222V74.2h-22.7V137.5z"/>
		<polygon class="st1" points="273.5,156.4 330,156.4 330,135.9 273.5,135.9 273.5,95 333.2,95 333.2,74.2 249.8,74.2 249.8,224.5 
			336.4,224.5 336.4,203.7 273.5,203.7 		"/>
		<polygon class="st1" points="342.6,74.2 342.6,95.2 386.8,95.2 386.8,224.5 410.8,224.5 410.8,95.2 455.2,95.2 455.2,74.2 		"/>
	</g>
	<g>
		<path class="st1" d="M540.5,137.2c-3.1,1.6-9.4,3.1-17.4,3.1c-18.6,0-32.6-11.8-32.6-33.4c0-20.7,14-34.7,34.5-34.7
			c8.2,0,13.4,1.8,15.7,2.9l-2.1,7c-3.2-1.6-7.8-2.7-13.3-2.7c-15.5,0-25.8,9.9-25.8,27.2c0,16.2,9.3,26.6,25.4,26.6
			c5.2,0,10.5-1.1,13.9-2.7L540.5,137.2z"/>
		<path class="st1" d="M592.7,115.2c0,17.5-12.2,25.2-23.6,25.2c-12.8,0-22.7-9.4-22.7-24.4c0-15.9,10.4-25.2,23.5-25.2
			C583.5,90.8,592.7,100.7,592.7,115.2z M555.1,115.7c0,10.4,6,18.2,14.4,18.2c8.2,0,14.4-7.7,14.4-18.4c0-8-4-18.2-14.2-18.2
			C559.5,97.3,555.1,106.7,555.1,115.7z"/>
		<path class="st1" d="M603.6,104.7c0-4.9-0.1-8.9-0.4-12.8h7.6l0.5,7.8h0.2c2.4-4.5,7.8-8.9,15.7-8.9c6.6,0,16.8,3.9,16.8,20.2
			v28.3h-8.6V112c0-7.6-2.8-14-11-14c-5.7,0-10.1,4-11.6,8.8c-0.4,1.1-0.6,2.5-0.6,4v28.5h-8.6L603.6,104.7L603.6,104.7z"/>
		<path class="st1" d="M658.9,139.3V98.5h-6.7v-6.6h6.7v-2.3c0-6.7,1.5-12.7,5.5-16.6c3.2-3.1,7.5-4.4,11.6-4.4c3,0,5.7,0.7,7.4,1.4
			l-1.2,6.7c-1.3-0.6-3-1.1-5.5-1.1c-7.4,0-9.2,6.5-9.2,13.7v2.5H679v6.6h-11.5v40.9L658.9,139.3L658.9,139.3z"/>
	</g>
</g>
<g>
	<path class="st1" d="M509.7,214c12.6-12.7,21.5-22.6,21.5-35.1c0-9.6-6-19.3-19.4-19.3c-6.6,0-12.9,2.4-17.8,6.7l-0.3,0.2l3.1,7.1
		l0.5-0.4c2.8-2.4,7.3-5.4,12.9-5.4c10.3,0,11.8,7.6,11.8,12.2c-0.1,9.8-7.4,18.1-22.9,33.6l-6.7,6.8v6.1h40.5v-8.3h-27.3L509.7,214
		z"/>
	<path class="st1" d="M562.2,159.5c-13.6,0-22,13.1-22,34.2c0.1,10.4,2.1,19.1,5.9,25c3.7,5.8,8.9,8.8,15.1,8.8c7,0,12.5-3,16.3-9.1
		c3.8-6,5.7-14.6,5.7-25.6C583.2,171.6,575.6,159.5,562.2,159.5z M573.9,193.2c0,17.1-4.3,26.5-12.2,26.5c-7.5,0-12.1-9.9-12.1-25.9
		c0-16.4,4.7-26.5,12.2-26.5C569.6,167.3,573.9,176.5,573.9,193.2z"/>
	<path class="st1" d="M607.4,214c12.6-12.7,21.5-22.6,21.5-35.1c0-9.6-6-19.3-19.4-19.3c-6.6,0-12.9,2.4-17.8,6.7l-0.3,0.2l3.1,7.1
		l0.5-0.4c2.3-2,7-5.4,12.9-5.4c10.3,0,11.8,7.6,11.8,12.2c-0.1,9.8-7.4,18.1-22.9,33.6l-6.7,6.8v6.1h40.5v-8.3h-27.3L607.4,214z"/>
	<path class="st1" d="M673.6,200.9v-40.3h-9.8L636,202.3v6.4h28.8v17.6h8.8v-17.6h8.7v-7.9H673.6z M645.7,200.9l14.8-21.5
		c1.7-2.9,3-5.4,4.5-8.3c-0.1,2.9-0.2,5.8-0.2,8.6v21.1H645.7z"/>
</g>
</svg>

<?xml version="1.0" encoding="UTF-8" standalone="no"?>
<!DOCTYPE svg PUBLIC "-//W3C//DTD SVG 1.1//EN" "http://www.w3.org/Graphics/SVG/1.1/DTD/svg11.dtd">
<svg width="100%" height="100%" viewBox="0 0 744 293" version="1.1" xmlns="http://www.w3.org/2000/svg" xmlns:xlink="http://www.w3.org/1999/xlink" xml:space="preserve" xmlns:serif="http://www.serif.com/" style="fill-rule:evenodd;clip-rule:evenodd;stroke-linejoin:round;stroke-miterlimit:2;">
    <rect x="0" y="0" width="744" height="293" style="fill:url(#_Linear1);"/>
    <g>
        <g>
            <path d="M73.6,194.7C64.7,194.7 58.2,201.5 58.2,210.8C58.2,220.1 64.6,226.9 73.4,226.9C82.5,226.9 88.8,220.3 88.8,210.8C88.8,201.3 82.6,194.7 73.6,194.7Z" style="fill:white;fill-rule:nonzero;"/>
            <path d="M199.3,137.5C199.3,154.6 199.5,169.8 200.6,185.6C194.6,173.8 187.7,161.7 179.6,148.9L132.3,74.3L108,74.3L108,224.5L130.7,224.5L130.7,159.9C130.7,140.2 130.4,125.1 129.7,110.4C135.5,121.8 142.9,134.5 152.3,149.6L199.1,224.5L222,224.5L222,74.2L199.3,74.2L199.3,137.5Z" style="fill:white;fill-rule:nonzero;"/>
            <path d="M273.5,156.4L330,156.4L330,135.9L273.5,135.9L273.5,95L333.2,95L333.2,74.2L249.8,74.2L249.8,224.5L336.4,224.5L336.4,203.7L273.5,203.7L273.5,156.4Z" style="fill:white;fill-rule:nonzero;"/>
            <path d="M342.6,74.2L342.6,95.2L386.8,95.2L386.8,224.5L410.8,224.5L410.8,95.2L455.2,95.2L455.2,74.2L342.6,74.2Z" style="fill:white;fill-rule:nonzero;"/>
        </g>
        <g>
            <path d="M540.5,137.2C537.4,138.8 531.1,140.3 523.1,140.3C504.5,140.3 490.5,128.5 490.5,106.9C490.5,86.2 504.5,72.2 525,72.2C533.2,72.2 538.4,74 540.7,75.1L538.6,82.1C535.4,80.5 530.8,79.4 525.3,79.4C509.8,79.4 499.5,89.3 499.5,106.6C499.5,122.8 508.8,133.2 524.9,133.2C530.1,133.2 535.4,132.1 538.8,130.5L540.5,137.2Z" style="fill:white;fill-rule:nonzero;"/>
            <path d="M592.7,115.2C592.7,132.7 580.5,140.4 569.1,140.4C556.3,140.4 546.4,131 546.4,116C546.4,100.1 556.8,90.8 569.9,90.8C583.5,90.8 592.7,100.7 592.7,115.2ZM555.1,115.7C555.1,126.1 561.1,133.9 569.5,133.9C577.7,133.9 583.9,126.2 583.9,115.5C583.9,107.5 579.9,97.3 569.7,97.3C559.5,97.3 555.1,106.7 555.1,115.7Z" style="fill:white;fill-rule:nonzero;"/>
            <path d="M603.6,104.7C603.6,99.8 603.5,95.8 603.2,91.9L610.8,91.9L611.3,99.7L611.5,99.7C613.9,95.2 619.3,90.8 627.2,90.8C633.8,90.8 644,94.7 644,111L644,139.3L635.4,139.3L635.4,112C635.4,104.4 632.6,98 624.4,98C618.7,98 614.3,102 612.8,106.8C612.4,107.9 612.2,109.3 612.2,110.8L612.2,139.3L603.6,139.3L603.6,104.7Z" style="fill:white;fill-rule:nonzero;"/>
            <path d="M658.9,139.3L658.9,98.5L652.2,98.5L652.2,91.9L658.9,91.9L658.9,89.6C658.9,82.9 660.4,76.9 664.4,73C667.6,69.9 671.9,68.6 676,68.6C679,68.6 681.7,69.3 683.4,70L682.2,76.7C680.9,76.1 679.2,75.6 676.7,75.6C669.3,75.6 667.5,82.1 667.5,89.3L667.5,91.8L679,91.8L679,98.4L667.5,98.4L667.5,139.3L658.9,139.3Z" style="fill:white;fill-rule:nonzero;"/>
        </g>
    </g>
    <g>
        <path d="M509.7,214C522.3,201.3 531.2,191.4 531.2,178.9C531.2,169.3 525.2,159.6 511.8,159.6C505.2,159.6 498.9,162 494,166.3L493.7,166.5L496.8,173.6L497.3,173.2C500.1,170.8 504.6,167.8 510.2,167.8C520.5,167.8 522,175.4 522,180C521.9,189.8 514.6,198.1 499.1,213.6L492.4,220.4L492.4,226.5L532.9,226.5L532.9,218.2L505.6,218.2L509.7,214Z" style="fill:white;fill-rule:nonzero;"/>
        <path d="M562.2,159.5C548.6,159.5 540.2,172.6 540.2,193.7C540.3,204.1 542.3,212.8 546.1,218.7C549.8,224.5 555,227.5 561.2,227.5C568.2,227.5 573.7,224.5 577.5,218.4C581.3,212.4 583.2,203.8 583.2,192.8C583.2,171.6 575.6,159.5 562.2,159.5ZM573.9,193.2C573.9,210.3 569.6,219.7 561.7,219.7C554.2,219.7 549.6,209.8 549.6,193.8C549.6,177.4 554.3,167.3 561.8,167.3C569.6,167.3 573.9,176.5 573.9,193.2Z" style="fill:white;fill-rule:nonzero;"/>
        <path d="M607.4,214C620,201.3 628.9,191.4 628.9,178.9C628.9,169.3 622.9,159.6 609.5,159.6C602.9,159.6 596.6,162 591.7,166.3L591.4,166.5L594.5,173.6L595,173.2C597.3,171.2 602,167.8 607.9,167.8C618.2,167.8 619.7,175.4 619.7,180C619.6,189.8 612.3,198.1 596.8,213.6L590.1,220.4L590.1,226.5L630.6,226.5L630.6,218.2L603.3,218.2L607.4,214Z" style="fill:white;fill-rule:nonzero;"/>
    </g>
    <g transform="matrix(0.639086,0,0,0.639086,-37.1986,-324.596)">
        <text x="1050.73px" y="861.377px" style="font-family:'ArialMT', 'Arial', sans-serif;font-size:144px;fill:white;">5</text>
    </g>
    <defs>
        <linearGradient id="_Linear1" x1="0" y1="0" x2="1" y2="0" gradientUnits="userSpaceOnUse" gradientTransform="matrix(715.183,289.753,-289.753,715.183,44.8587,13.96)"><stop offset="0" style="stop-color:rgb(153,153,255);stop-opacity:1"/><stop offset="0.59" style="stop-color:rgb(80,80,182);stop-opacity:1"/><stop offset="0.84" style="stop-color:rgb(59,59,161);stop-opacity:1"/><stop offset="1" style="stop-color:rgb(51,51,153);stop-opacity:1"/></linearGradient>
    </defs>
</svg>
